!!!COM: Haydn, Franz Joseph
!!!OTL: String Quartet in F-sharp Minor
!!!OPS: Opus 50
!!!ONM: No. 4
!!!OMD: Menuetto: Poco allegretto
!!!OMV: 3
!!!SCT: H III:47
!!!SCA: Thematisch-bibliographisches Werkevererzeichnis (A. van Hoboken)
!!!YOR: Trautwein Edition
!!!ENC: Frances Bennion
!!!CDT: 1732/3/31/-1809/5/31/
!!!CNT: Oesterreich
!!!YEC: Copyright (c) 1994, 2000 Center for Computer Assisted Research in the Humanities
!!!YEM: Rights to all derivative editions reserved.
!!!YEM: Refer to licensing agreement for further details.
!!!YEN: United States of America
**kern	**kern	**kern	**kern
*k[f#c#g#d#a#e#]	*k[f#c#g#d#a#e#]	*k[f#c#g#d#a#e#]	*k[f#c#g#d#a#e#]
*F#:	*F#:	*F#:	*F#:
*clefF4	*clefC3	*clefG	*clefG
*M3/4	*M3/4	*M3/4	*M3/4
2r	2r	2r	2r
4r	4r	4r	8cc#
.	.	.	16b#
.	.	.	16cc#
=1	=1	=1	=1
[2.F#	2F#	2A#	4ff#
.	.	.	4cc#
.	4G#	4B	4cc#
=2	=2	=2	=2
2.F#_	4A#	4c#	2cc#
.	4B	4d#	.
.	4c#	4e	8a#
.	.	.	16g#
.	.	.	16a#
=3	=3	=3	=3
2.F#_	2.B	2d#	4b
.	.	.	4dd#
.	.	4e#	4g#
=4	=4	=4	=4
2F#]	2A#	2f#	4a#
.	.	.	4cc#
8FF#	8F#	8f#	8f#
16EE#	16E#	16e#	16e#
16FF#	16F#	16f#	16f#
=5	=5	=5	=5
4GG#	4G#	4g#	4g#
4BB	4B	4b	4b
4EE#	4E#	4e#	4e#
=6	=6	=6	=6
4FF#	4F#	4f#	4f#
4AA#	4A#	4a#	4a#
4BBB#	4BB#	4d#	4d#
=7	=7	=7	=7
4CC#	4C#	4e#	4e#
4EE#	4E#	4g#	4g#
4GG#	4G#	4B#	4B#
=8	=8	=8	=8
4C#	4E#	4c#	4c#
2r	2r	2r	4r
.	.	.	8cc#
.	.	.	16b#
.	.	.	16cc#
=9	=9	=9	=9
2r	[2.e#	[2.g#	4bb
.	.	.	4gg#
8C#	.	.	4ee#
16BB#	.	.	.
16C#	.	.	.
=10	=10	=10	=10
4B	2e#]	2g#]	4cc#
4G#	.	.	4r
4E#	4g#	4b	8cc#
.	.	.	16b#
.	.	.	16cc#
=11	=11	=11	=11
4C#	[2.f#	[2.a#	4ccc#
4r	.	.	4aa#
8C#	.	.	4ff#
16BB#	.	.	.
16C#	.	.	.
=12	=12	=12	=12
4c#	2.f#]	2.a#]	4cc#
4A#	.	.	4r
4F#	.	.	8ccc#
.	.	.	16bb#
.	.	.	16ccc#
=13	=13	=13	=13
[2.D	2.a 2.d	[2.a [2.ff#	4fff#
.	.	.	4ddd
.	.	.	4aa
=14	=14	=14	=14
2D]	4f#	4a] 4ff#]	4ff#
.	4d	4dd	4dd
4AA	4A	4a	4a
=15	=15	=15	=15
4FF#	4F#	4f#	4f#
4GG	4G	4g	4g
4GG#	4G#	4g#	4g#
=16	=16	=16	=16
4AA	4A	4a	4a
4AA#	4A#	4a#	4a#
4BB	4B	4b	4b
=17	=17	=17	=17
[2.BB#	4B#	4b#	4b#
.	[2d#	4dd#	4dd#
.	.	4f#	4ff#
=18	=18	=18	=18
4BB#]	4d#]	4a	4aa
4C#	4e#	4g#	4gg#
4G#	4d#	4f#	4b#
=19	=19	=19	=19
4C#	4c#	4e#	4cc#
4E#	4e#	4e#	4cc#
4G#	4g#	4e#	4cc#
=20	=20	=20	=20
4c#	4c#	4e#	4cc#
2r	2r	2r	4r
.	.	.	8cc#
.	.	.	16b#
.	.	.	16cc#
=21	=21	=21	=21
[2.F#	2F#	2A#	4ff#
.	.	.	4cc#
.	4G#	4B	4cc#
=22	=22	=22	=22
2.F#_	4A#	4c#	2cc#
.	4B	4d#	.
.	4c#	4e	8a#
.	.	.	16g#
.	.	.	16a#
=23	=23	=23	=23
2.F#_	2.B	2d#	4b
.	.	.	4dd#
.	.	4e#	4g#
=24	=24	=24	=24
2F#]	2A#	2f#	4a#
.	.	.	4cc#
8FF#	8F#	8f#	8f#
16EE#	16E#	16e#	16e#
16FF#	16F#	16f#	16f#
=25	=25	=25	=25
4GG#	4G#	4g#	4g#
4BB	4B	4b	4b
4DD	4D	4d	4d
=26	=26	=26	=26
4CC#	4C#	4c#	4c#
4BB	4B	4b	4b
8FF#	8F#	8f#	8f#
16EE#	16E#	16e#	16e#
16FF#	16F#	16f#	16f#
=27	=27	=27	=27
4GG#	4G#	4g#	4g#
4BB	4B	4b	4b
8DD	8D	8d	8d
16CC#	16C#	16c#	16c#
16DD	16D	16d	16d
=28	=28	=28	=28
4CC#	4C#	4c#	4c#
4AA	4A	4a	4a
4CC#	4C#	4c#	4c#
=29	=29	=29	=29
4BBB#	4BB#	4B#	4B#
4AA	4A	4a	4a
4BBB#	4BB#	4B#	4B#
=30	=30	=30	=30
4CC#	4C#	4c#	8c#
.	.	.	8f#
2r	2r	2r	8a#
.	.	.	8cc#
.	.	.	8ff#
.	.	.	8aa#
=31	=31	=31	=31
2.r	2.r	2.r	4ccc#
.	.	.	4aa#
.	.	.	4ff#
=32	=32	=32	=32
[2.C#	2.F#	2.A#	4cc#
.	.	.	4a#
.	.	.	8f#
.	.	.	16e#
.	.	.	16f#
=33	=33	=33	=33
2.C#]	2E#	2.B	4g#
.	.	.	4b
.	4G#	.	4e#
=34	=34	=34	=34
4FF#	4F#	4A#	4f#
4r	4r	4r	4a#
8FF#	4A#	4f#	4cc#
16EE#	.	.	.
16FF#	.	.	.
=35	=35	=35	=35
4GG#	2B	4f#	2cc#
4CC#	.	4e#	.
4CC#	4G#	4e#	8b
.	.	.	16a#
.	.	.	16b
=36	=36	=36	=36
4FF#	2A#	2f#	8a#
.	.	.	8cc#
4r	.	.	8ff#
.	.	.	8aa#
8FF#	4A#	4f#	8ccc#
16EE#	.	.	8ccc#
16FF#	.	.	.
=37	=37	=37	=37
4GG#	2B	4f#	2ccc#
4CC#	.	4e#	.
4CC#	8B	4g#	8ee#
.	16A#	.	16dd#
.	16B	.	16ee#
=38	=38	=38	=38
4FF#	4A#	4f#	4ff#
2r	4r	4r	2r
.	8F#	[4f#	.
.	16E#	.	.
.	16F#	.	.
=39	=39	=39	=39
*f#:	*f#:	*f#:	*f#:
2.r	4G#	4f#]	2.r
.	4C#	4e#	.
.	[4B	4g#	.
=40	=40	=40	=40
2.r	4B]	4c#	2r
.	4A	4f#	.
.	8F#	8.a	[4cc#
.	16E#	.	.
.	16F#	16g#	.
=41	=41	=41	=41
2.r	[2.d	2.f#	4cc#]
.	.	.	4b
.	.	.	4dd
=42	=42	=42	=42
2r	4d]	2e	4g#
.	4c#	.	4a
8AA	4r	8.cc#	[4ee
16GG#	.	.	.
16AA	.	16b	.
=43	=43	=43	=43
2F#	2r	2a	4ee]
.	.	.	4dd#
4F	8a	4aa	[4dd
.	16g#	.	.
.	16a	.	.
=44	=44	=44	=44
4E	4b	4gg#	4dd]
4D#	4cc#	4aa	4cc#
4D#	4f#	4aa	4b#
=45	=45	=45	=45
2.E	2e	4aa	4cc#
.	.	8cc#	8ee
.	.	8a	8cc#
.	8B	8b	8dd
.	8d	8g#	8b
=46	=46	=46	=46
4AA	4c#	4a	4a
4A	2r	2r	4r
4r	.	.	8cc#
.	.	.	16b
.	.	.	16cc#
=47	=47	=47	=47
2.r	2r	2r	4ee
.	.	.	4a
.	8d#	4cc#	[4aa
.	16c#	.	.
.	16d#	.	.
=48	=48	=48	=48
2.r	4e	2b	4aa]
.	4E	.	4gg#
.	4r	4r	8ee
.	.	.	16dd#
.	.	.	16ee
=49	=49	=49	=49
2.r	2r	2r	4ff#
.	.	.	4b
.	8e#	4dd	[4bb
.	16d#	.	.
.	16e#	.	.
=50	=50	=50	=50
2r	4f#	2cc#	4bb]
.	4F#	.	4aa
4f#	4r	8aa	8ccc#
.	.	16gg#	16bb
.	.	16aa	16ccc#
=51	=51	=51	=51
4B	2.r	4bb	4ddd
8e	.	4gg#	4bb
16d#	.	.	.
16e	.	.	.
4A	.	8aa	8ccc#
.	.	16gg#	16bb
.	.	16aa	16ccc#
=52	=52	=52	=52
8d	2.r	4ff#	4aa
16c#	.	.	.
16d	.	.	.
4B	.	4gg#	4bb
4B#	.	8ff#	8aa
.	.	16ee#	16gg#
.	.	16ff#	16aa
=53	=53	=53	=53
2c#	2.r	2ee#	4gg#
.	.	.	4ccc#
4B#	.	8ff#	8aa
.	.	16ee#	16gg#
.	.	16ff#	16aa
=54	=54	=54	=54
2c#	2.r	2ee#	4gg#
.	.	.	4ccc#
4B#	.	8ff#	8aa
.	.	16ee#	16gg#
.	.	16ff#	16aa
=55	=55	=55	=55
4c#	2.r	4ee#	4gg#
4c#	.	4ee#	4gg#
4c#	.	4ee#	4gg#
=56	=56	=56	=56
4c#	2r	4ee#	4gg#
2r	.	4r	2r
.	[4F#	8f#	.
.	.	16e#	.
.	.	16f#	.
=57	=57	=57	=57
2r	4F#]	4g#	2.r
.	4E#	4c#	.
8CC#	4G#	[4b	.
16BBB#	.	.	.
16CC#	.	.	.
=58	=58	=58	=58
4FF#	4C#	4b]	2r
2r	4F#	4a	.
.	4r	8f#	8a
.	.	16e#	16g#
.	.	16f#	16a
=59	=59	=59	=59
2r	2.r	4g#	4b
.	.	4e#	4g#
8BB	.	[4b	[4dd
16AA#	.	.	.
16BB	.	.	.
=60	=60	=60	=60
2.E#	2r	4b]	4dd]
.	.	4a	4cc#
.	8d	[4g#	[4b
.	16c#	.	.
.	16d	.	.
=61	=61	=61	=61
2F#	2c#	4g#]	4b]
.	.	4f#	4a
4E	[4A	8c#	[4g
.	.	16B	.
.	.	16c#	.
=62	=62	=62	=62
2D	2.A_	2d	4g]
.	.	.	4f#
8AA	.	4g	4cc#
16GG#	.	.	.
16AA	.	.	.
=63	=63	=63	=63
[2.D	4.A]	4g	4ee
.	.	4f#	4dd
.	8D	.	.
.	8E	4e	4cc#
.	8F#	.	.
=64	=64	=64	=64
2.D_	2.G	2.d	2.b
=65	=65	=65	=65
2.D]	[2.F#	[2.a	2.b#
=66	=66	=66	=66
4C#	4F#]	4a]	4cc#
2BB#	2F#	2a	2dd#
=67	=67	=67	=67
4C#	4A	4a	4cc#
4C#	4c#	4f#	4a
4C#	4c#	4e#	4g#
=68	=68	=68	=68
4F#	4F#	4f#	4f#
2r	2r	2r	2r
==	==	==	==
*-	*-	*-	*-
!!!RWG1: This file contains only pitch and duration data.
!!!RWG2: Transposing instruments are not transposed.
!!!RWG3: Spines may have incompatible meters.
!!!RWG4: Durations of rests and tied notes may be interpreted.
!!!RWG: Key is interpreted using the Humdrum key tool.
!!!GTL: 6 Quartetti ("Prussian")
!!!AFT: stage1
!!!END: 1997/04/15
!!!KEY: 1951386540
!!!EMD: Converted from MuseData to Humdrum Dec 16, 2000, by Andreas Kornstaedt using muse2kern.
!!!EMD: Manual editing by Craig Sapp, Nov 2001
